svgs/regular/tugrik-sign.svg

<svg xmlns="http://www.w3.org/2000/svg" viewBox="0 0 384 512"><!-- Font Awesome Pro 6.0.0-alpha2 by @fontawesome - https://fontawesome.com License - https://fontawesome.com/license (Commercial License) --><path d="M384 56C384 69.25 373.25 80 360 80H216V184.762L305.812 160.812C318.719 157.344 331.781 165.062 335.188 177.812C338.594 190.625 331 203.781 318.188 207.188L216 234.438V280.762L305.812 256.812C318.719 253.344 331.781 261.062 335.188 273.812C338.594 286.625 331 299.781 318.188 303.188L216 330.438V456C216 469.25 205.25 480 192 480S168 469.25 168 456V343.238L78.188 367.188C76.125 367.75 74.031 368 72 368C61.375 368 51.688 360.906 48.812 350.188C45.406 337.375 53 324.219 65.812 320.812L168 293.562V247.238L78.188 271.188C76.125 271.75 74.031 272 72 272C61.375 272 51.688 264.906 48.812 254.188C45.406 241.375 53 228.219 65.812 224.812L168 197.562V80H24C10.75 80 0 69.25 0 56S10.75 32 24 32H360C373.25 32 384 42.75 384 56Z"/></svg>

<svg xmlns="http://www.w3.org/2000/svg" viewBox="0 0 384 512"><!--! Font Awesome Pro 6.0.0-alpha3 by @fontawesome - https://fontawesome.com License - https://fontawesome.com/license (Commercial License) --><path d="M384 56c0 13.25-10.75 24-24 24h-144v104.8l89.81-23.95c12.91-3.469 25.97 4.25 29.38 17c3.406 12.81-4.188 25.97-17 29.38L216 234.4v46.32l89.81-23.95c12.91-3.469 25.97 4.25 29.38 17c3.406 12.81-4.188 25.97-17 29.38L216 330.4V456c0 13.25-10.75 24-24 24s-24-10.75-24-24v-112.8l-89.81 23.95C76.13 367.8 74.03 368 72 368c-10.62 0-20.31-7.094-23.19-17.81c-3.406-12.81 4.188-25.97 17-29.38L168 293.6V247.2L78.19 271.2C76.13 271.8 74.03 272 72 272c-10.62 0-20.31-7.094-23.19-17.81C45.41 241.4 53 228.2 65.81 224.8L168 197.6V80h-144C10.75 80 0 69.25 0 56S10.75 32 24 32h336C373.3 32 384 42.75 384 56z"/></svg>
